svg/remove-email.svg

<?xml version="1.0" encoding="UTF-8"?>
<svg xmlns="http://www.w3.org/2000/svg" xmlns:xlink="http://www.w3.org/1999/xlink" width="32" height="32" viewBox="0 0 32 32">
<path fill-rule="nonzero" fill="rgb(0%, 0%, 0%)" fill-opacity="1" d="M 25.601562 0 C 23.902344 -0.00390625 22.273438 0.667969 21.070312 1.867188 C 20.339844 2.597656 19.796875 3.492188 19.496094 4.480469 L 0 4.480469 L 0 6.261719 L 13.867188 18.332031 C 14.765625 19.117188 15.660156 19.199219 16 19.199219 C 16.339844 19.199219 17.234375 19.117188 18.132812 18.332031 C 18.558594 17.960938 21.609375 15.304688 24.589844 12.714844 C 25.230469 12.816406 25.878906 12.820312 26.523438 12.726562 C 24.953125 14.09375 23.707031 15.175781 22.328125 16.378906 L 32 23.992188 L 32 7.957031 C 31.917969 8.03125 31.835938 8.105469 31.75 8.175781 C 32.398438 5.933594 31.777344 3.519531 30.132812 1.867188 C 28.929688 0.667969 27.300781 -0.00390625 25.601562 0 M 25.601562 1.28125 C 26.960938 1.277344 28.265625 1.816406 29.226562 2.773438 C 31.21875 4.769531 31.21875 8.03125 29.226562 10.023438 C 27.230469 12.015625 23.96875 12.015625 21.976562 10.023438 C 19.984375 8.03125 19.984375 4.769531 21.976562 2.773438 C 22.9375 1.8125 24.242188 1.277344 25.601562 1.28125 M 22.398438 5.761719 C 22.226562 5.753906 22.0625 5.820312 21.945312 5.945312 C 21.824219 6.0625 21.757812 6.226562 21.761719 6.398438 C 21.761719 6.765625 22.035156 7.039062 22.398438 7.039062 L 28.800781 7.039062 C 28.96875 7.035156 29.132812 6.972656 29.257812 6.859375 C 29.371094 6.730469 29.4375 6.570312 29.441406 6.398438 C 29.445312 6.230469 29.378906 6.0625 29.257812 5.945312 C 29.136719 5.824219 28.972656 5.757812 28.800781 5.761719 Z M 0 7.957031 L 0 24.015625 L 9.671875 16.378906 C 6.539062 13.648438 2.066406 9.757812 0 7.957031 M 10.65625 17.234375 L 0 25.648438 L 0 27.519531 L 32 27.519531 L 32 25.621094 L 21.34375 17.234375 C 20.554688 17.917969 19.765625 18.605469 18.976562 19.296875 C 17.75 20.363281 16.484375 20.480469 16 20.480469 C 15.515625 20.480469 14.25 20.363281 13.023438 19.296875 C 12.800781 19.097656 11.898438 18.3125 10.65625 17.234375 M 10.65625 17.234375 "/>
</svg>

<svg role="img" viewBox="0 0 32 32" height="32" width="32" xmlns="http://www.w3.org/2000/svg"><path d="M25.602 0a6.396 6.396 0 0 0-4.532 1.867 6.285 6.285 0 0 0-1.574 2.613H0v1.782l13.867 12.07c.899.785 1.793.867 2.133.867.34 0 1.234-.082 2.133-.867.426-.371 3.476-3.027 6.457-5.617.64.101 1.289.105 1.933.012-1.57 1.367-2.816 2.449-4.195 3.652L32 23.992V7.957c-.082.074-.164.148-.25.219a6.415 6.415 0 0 0-1.617-6.309A6.396 6.396 0 0 0 25.602 0m0 1.281a5.12 5.12 0 0 1 3.625 1.492c1.992 1.997 1.992 5.258 0 7.25-1.997 1.993-5.258 1.993-7.25 0-1.993-1.992-1.993-5.253 0-7.25a5.103 5.103 0 0 1 3.625-1.492m-3.204 4.48a.582.582 0 0 0-.453.184.61.61 0 0 0-.183.453c0 .368.273.641.636.641h6.403a.706.706 0 0 0 .457-.18.72.72 0 0 0 .183-.46.625.625 0 0 0-.64-.637ZM0 7.958v16.059l9.672-7.637C6.539 13.649 2.066 9.758 0 7.957m10.656 9.277L0 25.648v1.872h32v-1.9l-10.656-8.387c-.79.684-1.578 1.371-2.367 2.063C17.75 20.363 16.484 20.48 16 20.48s-1.75-.117-2.977-1.183c-.222-.2-1.125-.985-2.367-2.063m0 0"/></svg>
